static/img/kroki/1e4edc49969b1daf0ae7f87a3ab2c292.svg

<?xml version="1.0" encoding="us-ascii" standalone="no"?><svg xmlns="http://www.w3.org/2000/svg" xmlns:xlink="http://www.w3.org/1999/xlink" contentStyleType="text/css" height="374px" preserveAspectRatio="none" style="width:316px;height:374px;" version="1.1" viewBox="0 0 316 374" width="316px" zoomAndPan="magnify"><defs/><g><!--class aws_ec2_instance--><g id="elem_aws_ec2_instance"><rect codeLine="23" fill="#3D176E" height="39.7891" id="aws_ec2_instance" rx="2.5" ry="2.5" style="stroke:#000D19;stroke-width:0.5;" width="192" x="72.5" y="328.58"/><ellipse cx="87.5" cy="348.4745" fill="#ADD1B2" rx="11" ry="11" style="stroke:#181818;stroke-width:1.0;"/><path d="M90.4688,354.1152 Q89.8906,354.412 89.25,354.5527 Q88.6094,354.7089 87.9063,354.7089 Q85.4063,354.7089 84.0781,353.0683 Q82.7656,351.412 82.7656,348.287 Q82.7656,345.162 84.0781,343.5058 Q85.4063,341.8495 87.9063,341.8495 Q88.6094,341.8495 89.25,342.0058 Q89.9063,342.162 90.4688,342.4589 L90.4688,345.1777 Q89.8438,344.5995 89.25,344.3339 Q88.6563,344.0527 88.0313,344.0527 Q86.6875,344.0527 86,345.1308 Q85.3125,346.1933 85.3125,348.287 Q85.3125,350.3808 86,351.4589 Q86.6875,352.5214 88.0313,352.5214 Q88.6563,352.5214 89.25,352.2558 Q89.8438,351.9745 90.4688,351.3964 L90.4688,354.1152 Z " fill="#000000"/><text fill="#D9B8FF" font-family="Helvetica" font-size="17" lengthAdjust="spacing" textLength="150" x="106.5" y="354.3598">aws_ec2_instance</text></g><!--class aws_resource--><g id="elem_aws_resource"><rect codeLine="26" fill="#3D176E" height="39.7891" id="aws_resource" rx="2.5" ry="2.5" style="stroke:#000D19;stroke-width:0.5;" width="155" x="7" y="167.79"/><ellipse cx="22" cy="187.6845" fill="#ADD1B2" rx="11" ry="11" style="stroke:#181818;stroke-width:1.0;"/><path d="M24.9688,193.3252 Q24.3906,193.622 23.75,193.7627 Q23.1094,193.9189 22.4063,193.9189 Q19.9063,193.9189 18.5781,192.2783 Q17.2656,190.622 17.2656,187.497 Q17.2656,184.372 18.5781,182.7158 Q19.9063,181.0595 22.4063,181.0595 Q23.1094,181.0595 23.75,181.2158 Q24.4063,181.372 24.9688,181.6689 L24.9688,184.3877 Q24.3438,183.8095 23.75,183.5439 Q23.1563,183.2627 22.5313,183.2627 Q21.1875,183.2627 20.5,184.3408 Q19.8125,185.4033 19.8125,187.497 Q19.8125,189.5908 20.5,190.6689 Q21.1875,191.7314 22.5313,191.7314 Q23.1563,191.7314 23.75,191.4658 Q24.3438,191.1845 24.9688,190.6064 L24.9688,193.3252 Z " fill="#000000"/><text fill="#D9B8FF" font-family="Helvetica" font-size="17" lengthAdjust="spacing" textLength="113" x="41" y="193.5698">aws_resource</text></g><!--class instance--><g id="elem_instance"><rect codeLine="29" fill="#3D176E" height="39.7891" id="instance" rx="2.5" ry="2.5" style="stroke:#000D19;stroke-width:0.5;" width="112" x="197.5" y="167.79"/><ellipse cx="212.5" cy="187.6845" fill="#ADD1B2" rx="11" ry="11" style="stroke:#181818;stroke-width:1.0;"/><path d="M215.4688,193.3252 Q214.8906,193.622 214.25,193.7627 Q213.6094,193.9189 212.9063,193.9189 Q210.4063,193.9189 209.0781,192.2783 Q207.7656,190.622 207.7656,187.497 Q207.7656,184.372 209.0781,182.7158 Q210.4063,181.0595 212.9063,181.0595 Q213.6094,181.0595 214.25,181.2158 Q214.9063,181.372 215.4688,181.6689 L215.4688,184.3877 Q214.8438,183.8095 214.25,183.5439 Q213.6563,183.2627 213.0313,183.2627 Q211.6875,183.2627 211,184.3408 Q210.3125,185.4033 210.3125,187.497 Q210.3125,189.5908 211,190.6689 Q211.6875,191.7314 213.0313,191.7314 Q213.6563,191.7314 214.25,191.4658 Q214.8438,191.1845 215.4688,190.6064 L215.4688,193.3252 Z " fill="#000000"/><text fill="#D9B8FF" font-family="Helvetica" font-size="17" lengthAdjust="spacing" textLength="70" x="231.5" y="193.5698">instance</text></g><!--class resource--><g id="elem_resource"><rect codeLine="32" fill="#3D176E" height="39.7891" id="resource" rx="2.5" ry="2.5" style="stroke:#000D19;stroke-width:0.5;" width="113" x="112" y="7"/><ellipse cx="127" cy="26.8945" fill="#ADD1B2" rx="11" ry="11" style="stroke:#181818;stroke-width:1.0;"/><path d="M129.9688,32.5352 Q129.3906,32.832 128.75,32.9727 Q128.1094,33.1289 127.4063,33.1289 Q124.9063,33.1289 123.5781,31.4883 Q122.2656,29.832 122.2656,26.707 Q122.2656,23.582 123.5781,21.9258 Q124.9063,20.2695 127.4063,20.2695 Q128.1094,20.2695 128.75,20.4258 Q129.4063,20.582 129.9688,20.8789 L129.9688,23.5977 Q129.3438,23.0195 128.75,22.7539 Q128.1563,22.4727 127.5313,22.4727 Q126.1875,22.4727 125.5,23.5508 Q124.8125,24.6133 124.8125,26.707 Q124.8125,28.8008 125.5,29.8789 Q126.1875,30.9414 127.5313,30.9414 Q128.1563,30.9414 128.75,30.6758 Q129.3438,30.3945 129.9688,29.8164 L129.9688,32.5352 Z " fill="#000000"/><text fill="#D9B8FF" font-family="Helvetica" font-size="17" lengthAdjust="spacing" textLength="71" x="146" y="32.7798">resource</text></g><!--reverse link aws_resource to aws_ec2_instance--><g id="link_aws_resource_aws_ec2_instance"><path codeLine="35" d="M103.0489,223.7498 C119.1989,254.2698 142.16,297.69 158.33,328.25 " fill="none" id="aws_resource-backto-aws_ec2_instance" style="stroke:#FFAF37;stroke-width:2.0;"/><polygon fill="none" points="94.63,207.84,97.7456,226.5561,108.3521,220.9435,94.63,207.84" style="stroke:#FFAF37;stroke-width:2.0;"/></g><!--reverse link instance to aws_ec2_instance--><g id="link_instance_aws_ec2_instance"><path codeLine="36" d="M234.7541,223.7088 C218.4141,254.2288 195.15,297.69 178.79,328.25 " fill="none" id="instance-backto-aws_ec2_instance" style="stroke:#FFAF37;stroke-width:2.0;"/><polygon fill="none" points="243.25,207.84,229.4645,220.8768,240.0437,226.5408,243.25,207.84" style="stroke:#FFAF37;stroke-width:2.0;"/></g><!--reverse link resource to aws_resource--><g id="link_resource_aws_resource"><path codeLine="37" d="M149.9511,62.9598 C133.8011,93.4798 110.84,136.9 94.67,167.46 " fill="none" id="resource-backto-aws_resource" style="stroke:#FFAF37;stroke-width:2.0;"/><polygon fill="none" points="158.37,47.05,144.6479,60.1535,155.2544,65.7661,158.37,47.05" style="stroke:#FFAF37;stroke-width:2.0;"/></g><!--reverse link resource to instance--><g id="link_resource_instance"><path codeLine="38" d="M187.2459,62.9188 C203.5859,93.4388 226.85,136.9 243.21,167.46 " fill="none" id="resource-backto-instance" style="stroke:#FFAF37;stroke-width:2.0;"/><polygon fill="none" points="178.75,47.05,181.9563,65.7508,192.5355,60.0868,178.75,47.05" style="stroke:#FFAF37;stroke-width:2.0;"/></g><!--SRC=[XP1BRy8m48Jl-HMME4TAG6s8r0j4gjeBgahlQ6ElmKfYHskd4NtyzvPIaFC0hZFVxipkJWbaMDLkpogiSYGRs4Bf6WWgjY0oRMPAGsmY9SXPqZSVZNOtWHLKo9wmV4UdEFI9jvtYXKPhsTIpbi2BBPb6Y-DwHw3jhuNQULHMWhKBvqZbZKElZ4ZpkPHzihzqCXDnSey3p910-aUYA19nsaTkHbsz-qoirGUos7_QoZWSr1n4_55NMnu8h-JWq9D_iUCB2A7qbjrvskkn4scaZhxUWJ3jWPPGMZ_6EYGqRbzZDhWAqxcGoIZyV0aE-E5r35gxGJxTA6qTQ8xiCmY-FO_GceQw-XZRvJgJ3rzX60w2WlEM2_x8_4dgU-UP7m00]--></g></svg>

<svg xmlns="http://www.w3.org/2000/svg" width="316" height="374" viewBox="0 0 316 374"><rect width="192" height="39.789" x="72.5" y="328.58" fill="#3D176E" rx="2.5" ry="2.5" style="stroke:#000d19;stroke-width:.5"/><circle cx="87.5" cy="348.474" r="11" fill="#ADD1B2" style="stroke:#181818;stroke-width:1"/><path d="M90.469 354.115q-.578.297-1.219.438-.64.156-1.344.156-2.5 0-3.828-1.64-1.312-1.657-1.312-4.782t1.312-4.781q1.328-1.656 3.828-1.656.703 0 1.344.156.656.156 1.219.453v2.719q-.625-.579-1.219-.844-.594-.281-1.219-.281-1.344 0-2.031 1.078-.687 1.062-.687 3.156t.687 3.172q.688 1.062 2.031 1.062.625 0 1.219-.265.594-.281 1.219-.86z"/><text x="106.5" y="354.36" fill="#D9B8FF" font-family="Helvetica" font-size="17" textLength="150">aws_ec2_instance</text><rect width="155" height="39.789" x="7" y="167.79" fill="#3D176E" rx="2.5" ry="2.5" style="stroke:#000d19;stroke-width:.5"/><circle cx="22" cy="187.685" r="11" fill="#ADD1B2" style="stroke:#181818;stroke-width:1"/><path d="M24.969 193.325q-.578.297-1.219.438-.64.156-1.344.156-2.5 0-3.828-1.64-1.312-1.657-1.312-4.782t1.312-4.781q1.328-1.656 3.828-1.656.703 0 1.344.156.656.156 1.219.453v2.719q-.625-.578-1.219-.844-.594-.281-1.219-.281-1.343 0-2.031 1.078-.687 1.062-.687 3.156t.687 3.172q.688 1.062 2.031 1.062.625 0 1.219-.265.594-.281 1.219-.86z"/><text x="41" y="193.57" fill="#D9B8FF" font-family="Helvetica" font-size="17" textLength="113">aws_resource</text><rect width="112" height="39.789" x="197.5" y="167.79" fill="#3D176E" rx="2.5" ry="2.5" style="stroke:#000d19;stroke-width:.5"/><circle cx="212.5" cy="187.685" r="11" fill="#ADD1B2" style="stroke:#181818;stroke-width:1"/><path d="M215.469 193.325q-.578.297-1.219.438-.64.156-1.344.156-2.5 0-3.828-1.64-1.312-1.657-1.312-4.782t1.312-4.781q1.328-1.656 3.828-1.656.703 0 1.344.156.656.156 1.219.453v2.719q-.625-.578-1.219-.844-.594-.281-1.219-.281-1.344 0-2.031 1.078-.687 1.062-.687 3.156t.687 3.172q.688 1.062 2.031 1.062.625 0 1.219-.265.594-.281 1.219-.86z"/><text x="231.5" y="193.57" fill="#D9B8FF" font-family="Helvetica" font-size="17" textLength="70">instance</text><rect width="113" height="39.789" x="112" y="7" fill="#3D176E" rx="2.5" ry="2.5" style="stroke:#000d19;stroke-width:.5"/><circle cx="127" cy="26.895" r="11" fill="#ADD1B2" style="stroke:#181818;stroke-width:1"/><path d="M129.969 32.535q-.578.297-1.219.438-.64.156-1.344.156-2.5 0-3.828-1.64-1.312-1.657-1.312-4.782t1.312-4.781q1.328-1.656 3.828-1.656.703 0 1.344.156.656.156 1.219.453v2.719q-.625-.578-1.219-.844-.594-.281-1.219-.281-1.344 0-2.031 1.078-.687 1.062-.687 3.156t.687 3.172q.688 1.062 2.031 1.062.625 0 1.219-.265.594-.281 1.219-.86z"/><text x="146" y="32.78" fill="#D9B8FF" font-family="Helvetica" font-size="17" textLength="71">resource</text><path fill="none" d="M103.049 223.75c16.15 30.52 39.111 73.94 55.281 104.5m-63.7-120.41 3.116 18.716 10.606-5.613zm140.124 15.869c-16.34 30.52-39.604 73.981-55.964 104.541m64.46-120.41-13.786 13.037 10.58 5.664zM149.951 62.96c-16.15 30.52-39.111 73.94-55.281 104.5m63.7-120.41-13.722 13.104 10.606 5.612zm28.876 15.869c16.34 30.52 39.604 73.981 55.964 104.541M178.75 47.05l3.206 18.7 10.58-5.663z" style="stroke:#ffaf37;stroke-width:2"/></svg>
